svgs/sony_headphonesconnect.svg

<svg width="192" height="192" viewBox="0 0 192 192" fill="none" xmlns="http://www.w3.org/2000/svg">
<g clip-path="url(#clip0_154_166)">
<path d="M59 35.9141C23.6063 56.3486 11.4796 101.606 31.9141 137C36.4888 144.924 42.3077 151.681 48.9814 157.168L65.6987 147.517C69.5251 145.307 70.8361 140.415 68.6269 136.588L50.6269 105.411C48.4178 101.585 43.5251 100.274 39.6987 102.483L23.2442 111.983" stroke="black" stroke-width="12" stroke-linecap="round" stroke-linejoin="round"/>
<path d="M133 35.9141C168.394 56.3486 180.52 101.606 160.086 137C155.511 144.924 149.692 151.681 143.019 157.168L126.301 147.517C122.475 145.307 121.164 140.415 123.373 136.588L141.373 105.411C143.582 101.585 148.475 100.274 152.301 102.483L168.756 111.983" stroke="black" stroke-width="12" stroke-linecap="round" stroke-linejoin="round"/>
<path fill-rule="evenodd" clip-rule="evenodd" d="M47.8336 52C60.1457 39.6455 77.18 32 96 32C114.82 32 131.854 39.6455 144.166 52H160.006C145.411 32.5689 122.173 20 96 20C69.8269 20 46.5894 32.5689 31.9941 52H47.8336Z" fill="black"/>
</g>
<defs>
<clipPath id="clip0_154_166">
<rect width="192" height="192" fill="white"/>
</clipPath>
</defs>
</svg>

<svg xmlns="http://www.w3.org/2000/svg" width="192" height="192" fill="none" xmlns:v="https://vecta.io/nano"><g clip-path="url(#A)"><g stroke="#000" stroke-width="12" stroke-linecap="round" stroke-linejoin="round"><path d="M59 35.914C23.606 56.349 11.48 101.606 31.914 137a73.83 73.83 0 0 0 17.067 20.168l16.717-9.651c3.826-2.21 5.137-7.102 2.928-10.929l-18-31.177a8 8 0 0 0-10.928-2.928l-16.455 9.5M133 35.914c35.394 20.435 47.52 65.692 27.086 101.086-4.575 7.924-10.394 14.681-17.067 20.168l-16.718-9.651c-3.826-2.21-5.137-7.102-2.928-10.929l18-31.177a8 8 0 0 1 10.928-2.928l16.455 9.5"/></g><path fill-rule="evenodd" d="M47.834 52C60.146 39.646 77.18 32 96 32s35.854 7.645 48.166 20h15.84C145.411 32.569 122.173 20 96 20S46.589 32.569 31.994 52h15.839z" fill="#000"/></g><defs><clipPath id="A"><path fill="#fff" d="M0 0h192v192H0z"/></clipPath></defs></svg>
